**kern
*part1
*staff2
*ICklav
*Ipiano
*I"
*>[A,A,B,B]
*>norep[A,B]
*>A
*clefF4
*k[b-]
*F:
*M3/4
*MM144
(8FL
8A
8c
8A
8c
8AJ
=
8FL
8c
8e-
8c
8e-
8cJ)
=
(8FL
8B-
8d
8B-
8d
8B-J
=
8FL
8G
8B-
8G
8B-
8GJ)
=
4F 4A
4r
4r
=
2.r
=
(4F
4AA
4D
=
4GG
4.C
8AA)
=
(>4FF
4D
4BB-)
=
4AA
4r
4D
=
4BB-
4r
4C
=
4FF
4r
*clefG2
(8.a 8.ccL
16g 16b-Jk
=
4f) 4a
4f 4a
(8.f 8.aL
16c 16gJk
=
4A) 4f
4A 4f
(4A 4f
=
4c) 4g
4c' 4g'
4c' 4g'
=
(4c 4g
4f) 4a
(8.a 8.ccL
16g 16b-Jk
=
4f) 4a
4f 4a
(8.f 8.aL
16c 16gJk
=
4A) 4f
4A 4f
4A 4f
=
4c 4g
4r
(4c 4g
=
4f)
4r
(4c 4e 4b-
=
4f) 4a
4r
*clefF4
4C 4E (4B-
=
4F 4A)
4r
(4CC# 4C#
=
8DD) 8D
(8FL
8A
8F
8A
8FJ
=
8DL
8F
8A
8F
8A
8FJ)
=
4EE 4E
4E 4G 4B- 4c#
4r
=
4EE 4E
4E 4G 4B- 4c#
4r
=
(8FL
8A
8d
8A
8d
8AJ
=
8FL
8A
8d
8A
8d
8AJ)
=
4DD 4D
4D 4F 4A- 4Bn
4r
=
4DD 4D
4D 4F 4A- 4Bn
4r
=
(8E-L
8G
8c
8G
8c
8GJ
=
8E-L
8G
8c
8G
8c
8GJ)
=
(8CL
8E-
8A-
8E-
8A-
8E-J
=
8CL
8E-
8A-
8E-
8A-
8E-J)
=
(8AA-L
8C
8E-
8C
8E-
8CJ
=
8AA-L
8C
8E-
8C
8E-
8CJ)
=
(8GGL
8BBn
8D
8G
8C
8E-J
=
8GGL
8BBn
8D
8G
8C
8E-J)
=
4.GG 4.G
(16A-LL
16GJJ
16FLL
16E-
16D
16CJJ
=
4G')
4GG'
4r
=
(>64CqLLL>
64GqJJJ
4c)
4r
4r
=
(>64GqLLL>
64dqJJJ
4f)
4r
4r
=
4C
4E
4G
=
4c
4C
4r
=
(4A
4c 4f)
4r
=
(4Bn
4d 4g)
4r
=
4c
4A (4c
4F 4dn)
=
4G 4Bn
4r
4r
*clefG2
=
(12cL
12e
12gJ
12cL
12e
12gJ
12cL
12e
12gJ
=
12BnL
12d
12gJ
12BL
12d
12gJ
12BL
12f
12gJ
=
4c) 4e
*clefF4
4E
4G
=
4c
4G
4C
*clefG2
=
(8AL
8c
8f
8c
8A
8cJ
=
8BnL
8d
8g
8d
8B
8dJ)
=
4c
*clefF4
4F 4dn
4G 4f
=
4c 4e
4e
4c
=
4d
4Bn
4G
=
4C
4E-
4C
=
4D
4BBn
4GG
=
4CC 4C
4E-
4G
=
4FF 4F
4A-
4c
=
4BBB-X 4BB-X
4D
4F
=
4EE- 4E-
4G
4B-
=
4AAA- 4AA-
4A-
4DD 4D
=
4d
4GGG 4GG
4G
=
(4A-
4G
4F#
=
4G)
4r
8r
(8F#
=
4G)
4r
8r
(8F#
=
8GL
8F#
8G
8F#
8G
8F#J
=
4G)
4r
4r
=
4Fn
4F
4F
=
(2F
4C)
=
4GG
4GG
4GG
=
(2GG
4AA)
=
4FF
4GG
4GG
=
4C
4r
4r
=
4c 4f
4c 4f
4c 4f
=
*^
(2f	2.c
4e)	.
=	=
4d	4G
4d	4G
4d	4G
=	=
(2d	(2G
4c)	4A)
*v	*v
=
(4F
4G
4F)
=
8EE 8E
8r
8G#
8r
8A
8r
=
8F
8r
8Gn
8r
8F
8r
=
4EE 4E
4GG# 4G#
4AA 4A
=
4FF 4F
4GGn 4Gn
4GG 4G
=
(16CLL
16E
16G
16cJJ
16CLL
16E
16G
16cJJ
16CLL
16E
16G
16cJJ
=
16CLL
16E
16G
16cJJ
16CLL
16E
16G
16cJJ
16CLL
16F
16G
16cJJ
=
16CLL
16E
16G
16cJJ
16CLL
16E
16G
16cJJ
16CLL
16E
16G
16cJJ
=
16CLL
16E
16G
16cJJ
16CLL
16E
16G
16cJJ
16CLL
16F
16G
16cJJ)
=
4C 4E 4G 4c
4.E 4.e
8GG# 8G#
=
4AA 4A
4.C 4.c
8E
=
(8.FTTL
32ELL
32DJJJ
4Gn)
4GG 4G
=
4C 4c
4CC 4C
4r
=:|!|:
*>B
4r
(4E
4C)
=
2.G
=
4r
(4E
4C)
=
2.G
=
4F 4A 4d
4r
4r
=
4F 4A 4d
4r
4r
=
2.G 2.d 2.f
=
4c 4e
4r
4r
=
4r
(4E
4C)
=
2.GG 2.G
=
4r
(4E
4C)
=
2.GG 2.G
=
4FF 4AA 4D
4r
4r
=
4FF 4AA 4D
4r
4r
=
4GG 4D 4F
4r
4r
=
4C 4E
4e
4c
=
4d
4Bn
4G
=
4C
4E-
4C
=
4D
4BBn
4GG
=
4CC 4C
4c
4C
=
4AAA 4AA
4A
4AA
=
4BBB-X 4BB-X
4B-
4BB-
=
4FFF# 4FF#
4F#
4FF#
=
4GGG 4GG
4G
4GG
=
4EEn 4En
4e
4E
=
4FFn 4Fn
4f
4F
=
4CC# 4C#
4c#
4C#
=
4DD 4D
4d
4D
=
4BBB- 4BB-
4B-
4BB-
=
4AA
4r
*clefG2
8r
(8g#
=
4a)
4r
*clefF4
8r
(8G#
=
8AL
8G#
8A
8G#
8A
8G#J
=
4A)
4r
4r
=
(8AL
8G#
8A
8G#
8A
8G#J
=
4A)
4r
4r
=
*^
[2.B-X	(8GnL
.	8A
.	8G
.	8A
.	8G
.	8AJ
=	=
4B-]	4G)
2ryy	4r
.	4r
*clefG2	*clefG2
=	=
(8gL	[2.c
8f#	.
8g	.
8f#	.
8g	.
8f#J	.
=	=
4g)	4c]
4r	2ryy
4r	.
*clefF4	*clefF4
*v	*v
=
(8FL
8A
8c
8A
8c
8AJ
=
8FL
8c
8e-
8c
8e-
8cJ)
=
(8FL
8B-
8d
8B-
8d
8B-J
=
8FL
8G
8B-
8G
8B-)
8GJ
=
4F 4A
4r
4r
=
2.r
=
(4F
4AA
4D
=
4GG
4.C
8AA)
=
(>4FF
4D
4BB-)
=
4AA
4r
4D
=
4BB-
4r
4C
=
4FF
4r
*clefG2
(8.a 8.ccL
16g 16b-Jk
=
4f) 4a
4f 4a
(8.f 8.aL
16c 16gJk
=
4A) 4f
4A 4f
(4A 4f
=
4c) 4g
4c' 4g'
4c' 4g'
=
(4c 4g
4f) 4a
(8.a 8.ccL
16g 16b-Jk
=
4f) 4a
4f 4a
(8.f 8.aL
16c 16gJk
=
4A) 4f
4A 4f
4A 4f
=
4c 4g
4r
(4c 4g
=
4f)
4r
(4c 4e 4b-
=
4f) 4a
4r
*clefF4
4C 4E (4B-
=
4F 4A)
4r
(4CC# 4C#
=
8DD) 8D
(8FL
8A
8F
8A
8FJ
=
8DL
8F
8A
8F
8A)
8FJ
=
4EE 4E
4E 4G 4B- 4c#
4r
=
4EE 4E
4E 4G 4B- 4c#
4r
=
(8FL
8A
8d
8A
8d
8AJ
=
8FL
8A
8d
8A
8d
8AJ)
=
4DD 4D
4D 4F 4A- 4Bn
4r
=
4DD 4D
4D 4F 4A- 4Bn
4r
=
(8E-L
8G
8c
8G
8c
8GJ
=
8E-L
8G
8c
8G
8c
8GJ)
=
4EE-
4E- 4G- 4An 4c
4r
=
4EE-
4E- 4G- 4A 4c
4r
=
(8D-L
8F
8B-
8F
8B-
8FJ
=
8D-L
8F
8B-
8F
8B-
(8FJ)
=
8CL
8F
8An
8F
8A
8FJ
=
8CL
8F
8A
8F
8A
8FJ)
=
(8BBnL
8F
8A-
8F
8A-
8FJ
=
8BBnL
8F
8A-
8F
8A-
8FJ)
=
8CL
8En
(8G
8c
8F
8A-J
=
8CL
8E
8G
8c
8F
8A-J)
=
4.c
(16d-LL
16cJJ
16B-LL
16A-
16G
16FJJ
=
4c')
4CC' 4C'
4r
=
(>64FFqLLL>
64CqJJJ
4F)
4r
4r
=
(>64CqLLL>
64GqJJJ
4B-)
4r
4r
=
4FF
4AA
4C
=
4F
4FF
4r
=
(4D
4F 4B-)
4r
=
(4E
4G 4c)
4r
=
4F
4D 4F
4BB- 4G
=
4C 4E
4r
4r
=
(12FL
12A
12cJ
12FL
12A
12cJ
12FL
12A
12cJ
=
12EL
12G
12cJ
12EL
12G
12cJ
12EL
12B-
12cJ
=
4F 4A)
4A
4c
=
4f
4c
4F
*clefG2
=
(8dL
8f
8b-
8f
8d
8fJ
=
8eL
8g
8cc
8g
8e
8gJ)
=
4f
4B- 4gn
4c 4b-
=
4f 4a
4a
4f
=
4g
4e
4c
*clefF4
=
4F
4A-
4F
=
4G
4E
4C
=
4FF 4F
4A-
4c
=
4BB- 4B-
4d-
4f
=
4EE- 4E-
4G
4B-
=
4AA- 4A-
4c
4e-
=
4DD- 4D-
4d-
4GG 4G
=
4g
4CC 4C
4c
=
(4d-
4c
4Bn
=
4c)
4r
8r
(8Bn
=
4c)
4r
8r
(8Bn
=
8cL
8Bn
8c
8B
8c
8BJ
=
4c)
4r
4r
=
4B-X
4B-
4B-
=
(2B-
4F)
=
4C
4C
4C
=
(>2C
4D)
=
4BB-
4C
4C
=
4F
4r
4r
*clefG2
=
4f 4b-
4f 4b-
4f 4b-
=
*^
(2b-	2.f
4a)	.
=	=
4g	4c
4g	4c
4g	4c
=	=
(2g	(2c
4f)	4d)
*clefF4	*clefF4
*v	*v
=
(4B-
4c
4B-)
=
8AA 8A
8r
8c#
8r
8d
8r
=
8B-
8r
8cn
8r
8B-
8r
=
8AA 8A
8r
8C# 8c#
8r
8D 8d
8r
=
8BB- 8B-
8r
8Cn 8cn
8r
8CC 8C
8r
=
(16FFLL
16AA
16C
16FJJ
16FFLL
16AA
16C
16FJJ
16FFLL
16AA
16C
16FJJ
=
16FFLL
16AA
16C
16FJJ
16FFLL
16AA
16C
16FJJ
16FFLL
16BB-
16C
16FJJ
=
16FFLL
16AA
16C
16FJJ
16FFLL
16AA
16C
16FJJ
16FFLL
16AA
16C
16FJJ
=
16FFLL
16AA
16C
16FJJ
16FFLL
16AA
16C
16FJJ
16FFLL
16BB-
16C
16FJJ)
=
4FF 4AA 4C 4F
4.AA 4.A
8C# 8c#
=
4D 4d
4.F 4.f
8A
=
(8.B-TTL
32ALL
32GJJJ
4cn)
4C 4c
=
4F 4f
4FF 4F
4r
==:|!
*-
